frontend/public/svg/health/firstaid-2.svg

<svg width="163" height="132" viewBox="0 0 163 132" fill="none" xmlns="http://www.w3.org/2000/svg">
<g clip-path="url(#clip0)">
<path d="M160.225 77.917C158.537 65.7491 156.79 53.1671 157.07 40.5378C157.167 36.1712 155.304 32.3887 151.534 29.2947C147.169 25.6696 141.659 23.7088 135.985 23.7605C131.445 23.7461 126.84 23.8629 122.385 23.9732C120.064 24.0309 117.744 24.0887 115.427 24.1294C113.926 24.1563 112.426 24.1491 110.837 24.1419L109.381 24.1366L109.193 22.839C108.543 18.202 107.527 12.7799 104.917 7.72413C102.251 2.56074 98.0259 0.00635826 92.3814 0.131719C90.4321 0.175474 88.4814 0.215624 86.5308 0.252379C79.5034 0.392179 72.2371 0.536553 65.0937 0.889006C62.2171 1.11615 59.3655 1.59259 56.5711 2.31273C55.945 2.45515 55.3195 2.59749 54.6954 2.73335C53.0122 3.06009 51.4598 3.8677 50.2258 5.05826C48.9919 6.24882 48.1295 7.77132 47.7428 9.44177C47.0605 12.0976 46.6306 14.8121 46.459 17.5489C46.31 19.7305 46.3434 21.867 46.3775 24.1294C46.388 24.8047 46.3985 25.4846 46.4044 26.1712L42.1711 26.5886C38.1918 26.9824 34.2852 27.367 30.3787 27.7503C24.4533 28.3312 18.3264 28.9317 12.3078 30.8541C5.52319 33.0201 1.89228 37.671 1.20706 45.0699C1.04298 46.842 0.993156 48.6435 0.944587 50.3861L0.922954 51.1599C0.88948 52.2868 0.84013 53.4145 0.791561 54.5421C0.669483 57.3138 0.54351 60.18 0.673467 63.0088C1.10993 72.5179 1.64157 82.1792 2.1568 91.5229C2.38652 95.6899 2.61366 99.8577 2.83813 104.025C2.9228 105.612 2.97927 107.201 3.03506 108.79C3.14992 111.985 3.26868 115.288 3.61785 118.529C4.33982 125.24 7.81382 128.969 14.5492 130.262C17.1537 130.761 19.7997 131.011 22.4515 131.011H22.7685C44.3653 130.848 66.6956 130.625 89.1384 130.346C102.074 130.186 115.449 130.018 128.901 129.607C134.93 129.422 141.035 128.723 146.422 128.107C152.203 127.446 156.378 124.323 158.494 119.078C159.46 116.841 160.138 114.491 160.511 112.084C161.909 100.731 161.813 89.2447 160.225 77.917ZM125.882 30.587C129.482 30.4113 133.09 30.4633 136.683 30.7426C139.146 30.9907 141.707 32.1274 143.886 33.2065C147.069 34.7817 148.444 37.2102 148.628 41.5828C149.002 50.4118 149.861 59.737 151.417 71.8189L151.643 73.5615C152.866 83.0174 154.132 92.7962 153.568 102.488C153.433 105.804 153.068 109.107 152.476 112.373C151.267 118.383 149.325 120.163 143.455 120.652C131.969 121.61 122.372 122.199 113.263 122.506C103.017 122.851 92.5888 123.038 82.5042 123.217C77.4924 123.307 72.4806 123.403 67.4681 123.505C61.605 123.632 55.7405 123.774 49.8746 123.93L42.8629 124.105L42.8597 123.93H41.8934C40.162 123.93 38.4301 123.933 36.6979 123.939C32.4389 123.949 28.0342 123.96 23.7063 123.905C21.394 123.872 19.0864 123.687 16.7984 123.351C12.5624 122.733 11.3849 121.474 11.0718 117.23C10.8985 114.875 10.7824 112.471 10.6701 110.145C10.5802 108.283 10.4871 106.358 10.365 104.463C10.1681 101.391 9.94029 98.3212 9.71319 95.2509C9.28592 89.4705 8.84414 83.4932 8.61311 77.6144C8.14251 65.6217 8.01203 56.4021 8.19187 47.7207C8.25094 44.8807 9.21838 39.8756 15.0362 38.2564C19.0705 37.0476 23.1817 36.1121 27.3418 35.4564C42.3188 33.3925 57.4049 32.2179 72.5206 31.9385C83.232 31.7554 94.1141 31.4501 104.644 31.1541C111.109 30.9729 117.573 30.8001 124.038 30.6356C124.651 30.6211 125.266 30.6049 125.882 30.587ZM99.0727 10.0088C101.289 14.6301 101.753 19.516 101.835 24.1648H97.4043C97.361 23.8642 97.3151 23.5614 97.2678 23.2564C97.0709 21.9339 96.8642 20.5654 96.6161 19.2022C95.2739 11.8191 91.263 8.13835 83.9927 7.61919C77.7352 7.18561 71.4481 7.62457 65.3117 8.92339C59.9383 10.0484 57.7361 12.5148 57.1861 18.0241C57.0037 19.8559 56.8875 21.6943 56.7641 23.6416C56.7247 24.2708 56.6834 24.9152 56.64 25.5746H52.9776L52.9691 25.4321C52.6561 20.2471 52.3607 15.3468 54.5745 10.6711C55.0617 9.77473 55.8637 9.0907 56.8258 8.7513C59.7424 7.83282 62.7536 7.24763 65.8017 7.00676C73.1933 6.68646 80.7242 6.56502 88.0069 6.44753C89.7921 6.41865 91.5774 6.38891 93.3619 6.35828C96.068 6.31299 97.8559 7.47079 99.0727 10.0088ZM64.6107 17.2576C64.7011 16.7808 64.9453 16.3468 65.3057 16.0219C65.6665 15.6971 66.1233 15.499 66.6063 15.4584L67.8744 15.2733C70.6966 14.8598 73.6206 14.4326 76.4908 14.2233C77.6131 14.1406 78.7781 14.0993 80.0022 14.0993C81.389 14.0993 82.852 14.1524 84.4121 14.258C87.5816 14.4733 88.6783 15.49 89.3038 18.7914L89.3347 18.9514C89.4331 19.3899 89.4941 19.8358 89.5178 20.2845C89.5394 21.4659 89.5355 22.6474 89.5316 23.9528V24.6944L63.5513 25.4124C63.5049 22.657 63.8619 19.9097 64.6107 17.2576Z" fill="black"/>
<path d="M98.3864 48.9671C87.9755 45.1538 79.2417 43.9854 70.9035 45.2916C63.218 46.4946 56.9461 50.035 52.2637 55.8127C46.9031 62.3902 43.9144 70.5818 43.7799 79.0663C43.4951 89.2763 47.9995 96.9581 57.1692 101.897C62.6358 104.842 68.4679 105.559 75.5465 105.73H75.6003L75.6535 105.726C76.2087 105.679 76.8217 105.64 77.4748 105.599C79.096 105.497 80.9337 105.382 82.7754 105.089C91.8578 103.645 98.9613 100.259 104.492 94.7298C115.708 83.5163 113.271 64.8906 107.3 56.3024C104.738 52.6263 101.824 50.2266 98.3864 48.9671ZM62.0084 96.0543C54.555 92.8868 50.7043 86.6989 51.1671 78.6305C51.4415 73.2761 52.9777 68.0635 55.6504 63.4163C57.231 60.5821 59.3727 58.1001 61.9449 56.1215C64.517 54.1429 67.4656 52.7094 70.6102 51.9088C71.9327 51.5473 73.2959 51.3589 74.6663 51.3483C75.3725 51.3445 76.0768 51.4082 76.7705 51.5386C82.3632 52.6275 87.8568 54.1225 92.0179 55.3033C98.1993 57.057 102.183 61.4158 103.857 68.2577C106.97 80.9835 101.86 91.2 90.1887 95.5876C87.2772 96.5918 84.2896 97.3617 81.2547 97.8901C79.8534 98.1362 78.437 98.2865 77.0147 98.341C76.3584 98.3817 75.7053 98.4217 75.0536 98.4795C70.5819 98.6134 66.1333 97.7864 62.0084 96.0543Z" fill="black"/>
<path d="M79.3323 90.2181C81.1701 90.0487 82.3515 88.6389 82.3416 86.6259C82.3351 84.8538 82.2484 83.0653 82.1644 81.3345C82.1191 80.4084 82.0745 79.483 82.041 78.5569C82.0194 77.9393 82.0246 77.3053 82.0305 76.6345V76.519C82.3449 76.494 82.6514 76.4711 82.9494 76.4481C84.182 76.3536 85.3457 76.265 86.4936 76.1396C86.894 76.0956 87.2983 76.0602 87.7032 76.0241C89.1583 75.9539 90.5984 75.7071 91.9937 75.2903C93.2775 74.8512 94.1931 73.1132 94.3598 72.027C94.4228 71.6673 94.4084 71.2985 94.3165 70.9453C94.2246 70.5916 94.0586 70.2621 93.8282 69.9786C93.5118 69.6202 93.1253 69.3308 92.6914 69.1293C92.2582 68.9278 91.7876 68.8182 91.3092 68.807C90.028 68.7538 88.7449 68.8037 87.4709 68.956C85.8419 69.1293 84.2187 69.3406 82.5005 69.5644C82.0804 69.6195 81.6531 69.6753 81.2186 69.7311C81.2088 69.6163 81.1983 69.5027 81.1884 69.3911C81.1097 68.4998 81.0362 67.6584 80.9134 66.8275C80.5419 64.3104 80.1206 61.7625 79.713 59.2986L79.6972 59.2028C79.2529 56.5158 77.7709 56.0649 76.6092 56.1594C74.1807 56.3563 74.1302 58.5707 74.1066 59.6379L74.0987 59.9406C74.0908 60.4075 74.1125 60.8744 74.1643 61.3385C74.1853 61.5701 74.207 61.8026 74.2188 62.0349C74.3363 64.3977 74.4511 66.7553 74.568 69.1647L74.6336 70.543L74.4282 70.583C73.8309 70.7012 73.3596 70.7937 72.8897 70.858C71.6427 71.028 70.3877 71.1862 69.1361 71.3496C66.8698 71.6404 64.5269 71.9404 62.2251 72.2967C59.0137 72.7936 58.2312 73.7453 58.2404 77.1484V77.9859L59.0674 78.1171C62.2914 78.6317 65.3742 78.2629 68.6386 77.873C70.7343 77.5835 72.8438 77.4136 74.9585 77.3643C74.9585 77.4805 74.9539 77.5954 74.9513 77.7089C74.9165 78.612 74.9322 79.5165 74.9972 80.4183C75.156 82.6649 75.4297 84.9024 75.817 87.1214C76.1957 89.0905 77.3712 90.2331 78.9936 90.2331C79.1085 90.2331 79.2194 90.2286 79.3323 90.2181Z" fill="black"/>
</g>
<defs>
<clipPath id="clip0">
<rect width="162.115" height="131.268" fill="white" transform="translate(0.0098877 0.106812)"/>
</clipPath>
</defs>
</svg>

<svg xmlns="http://www.w3.org/2000/svg" width="163" height="132" fill="none" viewBox="0 0 163 132"><g fill="#000" clip-path="url(#a)"><path d="M160.225 77.917c-1.688-12.168-3.435-24.75-3.155-37.38.097-4.366-1.766-8.148-5.536-11.242a24 24 0 0 0-15.549-5.535c-4.54-.014-9.145.103-13.6.213-2.321.058-4.641.116-6.958.156-1.501.027-3.001.02-4.59.013l-1.456-.005-.188-1.298c-.65-4.637-1.666-10.06-4.276-15.115C102.251 2.561 98.026.006 92.381.132q-2.924.065-5.85.12c-7.028.14-14.294.285-21.437.637a50 50 0 0 0-8.523 1.424q-.939.215-1.876.42a8.87 8.87 0 0 0-6.952 6.709 43.5 43.5 0 0 0-1.284 8.107c-.149 2.182-.116 4.318-.082 6.58q.017 1.014.027 2.042l-4.233.418c-3.98.393-7.886.778-11.792 1.161-5.926.581-12.053 1.182-18.071 3.104-6.785 2.166-10.416 6.817-11.1 14.216-.165 1.772-.215 3.574-.263 5.316l-.022.774C.889 52.287.84 53.415.792 54.542.669 57.314.544 60.18.673 63.01c.437 9.509.969 19.17 1.484 28.514q.345 6.251.681 12.502c.085 1.587.141 3.176.197 4.765.115 3.195.234 6.498.583 9.739.722 6.711 4.196 10.44 10.931 11.733 2.605.499 5.25.749 7.903.749h.316c21.597-.163 43.928-.386 66.37-.665 12.936-.16 26.311-.328 39.763-.739 6.029-.185 12.134-.884 17.521-1.5 5.781-.661 9.956-3.784 12.072-9.029a28.8 28.8 0 0 0 2.017-6.994 131 131 0 0 0-.286-34.167m-34.343-47.33a86 86 0 0 1 10.801.156c2.463.248 5.024 1.384 7.203 2.464 3.183 1.575 4.558 4.003 4.742 8.376.374 8.829 1.233 18.154 2.789 30.236l.226 1.742c1.223 9.456 2.489 19.235 1.925 28.927a72 72 0 0 1-1.092 9.885c-1.209 6.01-3.151 7.79-9.021 8.279-11.486.958-21.083 1.547-30.192 1.854-10.246.345-20.674.532-30.759.711q-7.517.135-15.036.288-8.795.19-17.593.425l-7.012.175-.003-.175h-.967q-2.597 0-5.195.009c-4.26.01-8.664.021-12.992-.034a53 53 0 0 1-6.908-.554c-4.236-.618-5.413-1.877-5.726-6.121-.173-2.355-.29-4.759-.402-7.085-.09-1.862-.183-3.787-.305-5.682-.197-3.072-.425-6.142-.652-9.212-.427-5.78-.869-11.758-1.1-17.637-.47-11.992-.601-21.212-.421-29.893.059-2.84 1.026-7.845 6.844-9.465a94 94 0 0 1 12.306-2.8 383 383 0 0 1 45.179-3.518c10.711-.183 21.593-.488 32.123-.784a7516 7516 0 0 1 21.238-.567M99.072 10.01c2.217 4.621 2.681 9.507 2.763 14.156h-4.43q-.066-.45-.137-.909a128 128 0 0 0-.652-4.054C95.274 11.82 91.263 8.138 83.993 7.62a67.6 67.6 0 0 0-18.681 1.304c-5.374 1.125-7.576 3.592-8.126 9.101-.182 1.832-.298 3.67-.422 5.618q-.059.943-.124 1.933h-3.662l-.009-.143c-.313-5.185-.608-10.085 1.605-14.76a4.12 4.12 0 0 1 2.252-1.92 40.5 40.5 0 0 1 8.976-1.745c7.391-.32 14.922-.442 22.205-.56q2.677-.042 5.355-.089c2.706-.045 4.494 1.113 5.71 3.65m-34.461 7.249a2.22 2.22 0 0 1 1.995-1.8l1.268-.185c2.823-.413 5.747-.84 8.617-1.05a48 48 0 0 1 3.511-.124c1.387 0 2.85.053 4.41.159 3.17.215 4.266 1.232 4.892 4.533l.03.16q.149.66.184 1.334c.021 1.18.017 2.362.014 3.668v.741l-25.98.718a28.3 28.3 0 0 1 1.059-8.154"/><path d="M98.386 48.967c-10.41-3.813-19.144-4.982-27.482-3.675-7.686 1.203-13.958 4.743-18.64 10.52a37.76 37.76 0 0 0-8.484 23.254c-.285 10.21 4.22 17.892 13.39 22.831 5.466 2.945 11.298 3.662 18.376 3.833h.054l.053-.004a87 87 0 0 1 1.822-.127c1.621-.102 3.459-.217 5.3-.51 9.083-1.444 16.186-4.83 21.717-10.36 11.216-11.213 8.779-29.838 2.808-38.427-2.562-3.676-5.476-6.075-8.914-7.335M62.008 96.054c-7.453-3.167-11.304-9.355-10.84-17.424a34 34 0 0 1 4.482-15.214A23.87 23.87 0 0 1 70.61 51.91a16 16 0 0 1 4.056-.56q1.061-.006 2.105.19c5.592 1.088 11.086 2.584 15.247 3.764 6.181 1.754 10.165 6.113 11.839 12.955 3.113 12.726-1.997 22.942-13.668 27.33a58 58 0 0 1-8.934 2.302 31.5 31.5 0 0 1-4.24.451c-.657.04-1.31.08-1.961.139a31.3 31.3 0 0 1-13.046-2.426"/><path d="M79.332 90.218c1.838-.17 3.02-1.58 3.01-3.592-.007-1.772-.094-3.56-.178-5.291-.045-.927-.09-1.852-.123-2.778a44 44 0 0 1-.01-1.922v-.116q.471-.037.918-.07c1.233-.095 2.397-.184 3.545-.31q.6-.063 1.21-.115a18 18 0 0 0 4.29-.734c1.284-.439 2.2-2.177 2.366-3.263a2.55 2.55 0 0 0-.532-2.048 3.46 3.46 0 0 0-2.519-1.172 24 24 0 0 0-3.838.149c-1.63.173-3.252.385-4.97.608l-1.282.167-.03-.34c-.08-.891-.153-1.733-.276-2.564a440 440 0 0 0-1.2-7.528l-.016-.096c-.444-2.687-1.926-3.138-3.088-3.044-2.428.197-2.479 2.412-2.502 3.479l-.008.303q-.012.7.065 1.398c.021.231.043.464.055.696.117 2.363.232 4.72.349 7.13l.066 1.378-.206.04a27 27 0 0 1-1.538.275c-1.247.17-2.502.328-3.754.492-2.266.29-4.61.59-6.91.947-3.212.497-3.995 1.448-3.986 4.851v.838l.827.131c3.224.515 6.307.146 9.572-.244 2.095-.29 4.205-.46 6.32-.509q-.002.175-.008.345-.051 1.355.046 2.71a66 66 0 0 0 .82 6.702c.379 1.97 1.554 3.112 3.177 3.112q.17 0 .338-.015"/></g><defs><clipPath id="a"><path fill="#fff" d="M.01.107h162.115v131.268H.01z"/></clipPath></defs></svg>
